miniprogram/assets/figma/grid-folders-check.svg

<svg width="24" height="24" viewBox="0 0 24 24" fill="none" xmlns="http://www.w3.org/2000/svg">
<path d="M18.0303 7.71967C18.3232 8.01256 18.3232 8.48744 18.0303 8.78033L13.5303 13.2803C13.2374 13.5732 12.7626 13.5732 12.4697 13.2803L9.96967 10.7803C9.67678 10.4874 9.67678 10.0126 9.96967 9.71967C10.2626 9.42678 10.7374 9.42678 11.0303 9.71967L13 11.6893L16.9697 7.71967C17.2626 7.42678 17.7374 7.42678 18.0303 7.71967Z" fill="#9CA3AF"/>
<path fill-rule="evenodd" clip-rule="evenodd" d="M20.976 4.354C21.59 4.666 22.081 5.157 22.395 5.773C22.749 6.469 22.75 7.231 22.75 8.749V12.999C22.75 14.518 22.75 15.28 22.396 15.975C22.082 16.591 21.591 17.082 20.976 17.395C20.281 17.749 19.519 17.749 18 17.749H10C8.482 17.749 7.72 17.749 7.025 17.395C6.41 17.082 5.919 16.591 5.605 15.975C5.251 15.28 5.251 14.518 5.251 12.999V6.999C5.251 5.481 5.251 4.719 5.605 4.024C5.92 3.408 6.411 2.917 7.026 2.604C7.721 2.25 8.482 2.25 10.001 2.25H11.265C11.58 2.25 11.77 2.25 11.991 2.31C12.182 2.36 12.366 2.444 12.533 2.559C12.7195 2.68729 12.8486 2.83797 13.0412 3.06294L13.049 3.072L13.591 3.703C13.5984 3.71154 13.6058 3.72018 13.6132 3.72884C13.7 3.82969 13.7905 3.93482 13.819 3.956C13.933 3.999 14.087 3.999 14.236 3.999H18C19.518 3.999 20.281 3.999 20.976 4.354ZM21.059 15.293C21.249 14.919 21.249 14.237 21.249 12.999V8.747C21.249 7.509 21.249 6.828 21.058 6.453C20.889 6.122 20.625 5.857 20.294 5.689C19.919 5.498 19.237 5.498 17.999 5.498H14.235C13.921 5.498 13.731 5.498 13.511 5.44C13.317 5.389 13.132 5.304 12.965 5.189C12.7795 5.06171 12.6504 4.91104 12.4578 4.68608L12.45 4.677L11.908 4.046C11.9006 4.03746 11.8932 4.02884 11.8858 4.02018C11.799 3.91933 11.7085 3.81418 11.68 3.793C11.563 3.749 11.41 3.749 11.263 3.749H9.999C8.761 3.749 8.079 3.749 7.705 3.94C7.377 4.106 7.106 4.378 6.939 4.705C6.749 5.079 6.749 5.761 6.749 6.999V12.999C6.749 14.237 6.749 14.919 6.94 15.294C7.107 15.62 7.378 15.892 7.705 16.058C8.079 16.249 8.761 16.249 9.999 16.249H17.999C19.237 16.249 19.919 16.249 20.294 16.058C20.625 15.889 20.89 15.625 21.059 15.293Z" fill="#9CA3AF"/>
<path d="M18.099 20.448C18.347 20.116 18.28 19.646 17.948 19.398H17.95C17.617 19.15 17.148 19.217 16.9 19.549C16.742 19.761 16.533 19.937 16.296 20.057C15.921 20.248 15.239 20.248 14.001 20.248H6.001C4.763 20.248 4.082 20.248 3.707 20.057C3.38 19.891 3.109 19.62 2.942 19.293C2.751 18.918 2.751 18.236 2.751 16.998V10.998C2.751 9.76 2.751 9.078 2.941 8.704C3.062 8.468 3.239 8.258 3.451 8.098C3.782 7.849 3.849 7.379 3.6 7.048C3.352 6.718 2.882 6.65 2.55 6.899C2.155 7.195 1.829 7.584 1.604 8.024C1.25 8.719 1.25 9.481 1.25 10.999V16.999C1.25 18.517 1.25 19.28 1.604 19.975C1.918 20.591 2.409 21.082 3.024 21.395C3.719 21.749 4.481 21.749 5.999 21.749H13.999C15.517 21.749 16.28 21.749 16.974 21.395C17.414 21.171 17.803 20.844 18.099 20.448Z" fill="#9CA3AF"/>
</svg>

<svg xmlns="http://www.w3.org/2000/svg" width="24" height="24" fill="none" viewBox="0 0 24 24"><path fill="#9ca3af" d="M18.03 7.72a.75.75 0 0 1 0 1.06l-4.5 4.5a.75.75 0 0 1-1.06 0l-2.5-2.5a.75.75 0 1 1 1.06-1.06L13 11.69l3.97-3.97a.75.75 0 0 1 1.06 0"/><path fill="#9ca3af" fill-rule="evenodd" d="M20.976 4.354a3.22 3.22 0 0 1 1.419 1.419c.354.696.355 1.458.355 2.976v4.25c0 1.519 0 2.281-.354 2.976a3.23 3.23 0 0 1-1.42 1.42c-.695.354-1.457.354-2.976.354h-8c-1.518 0-2.28 0-2.975-.354a3.23 3.23 0 0 1-1.42-1.42c-.354-.695-.354-1.457-.354-2.976v-6c0-1.518 0-2.28.354-2.975a3.24 3.24 0 0 1 1.421-1.42c.695-.354 1.456-.354 2.975-.354h1.264c.315 0 .505 0 .726.06.191.05.375.134.542.249.187.128.316.279.508.504l.008.009.542.631.022.026c.087.1.178.206.206.227.114.043.268.043.417.043H18c1.518 0 2.281 0 2.976.355m.083 10.939c.19-.374.19-1.056.19-2.294V8.747c0-1.238 0-1.919-.191-2.294a1.74 1.74 0 0 0-.764-.764c-.375-.191-1.057-.191-2.295-.191h-3.764c-.314 0-.504 0-.724-.058a1.8 1.8 0 0 1-.546-.251c-.185-.127-.315-.278-.507-.503l-.008-.009-.542-.631-.022-.026c-.087-.1-.177-.206-.206-.227-.117-.044-.27-.044-.417-.044H9.999c-1.238 0-1.92 0-2.294.191a1.76 1.76 0 0 0-.766.765c-.19.374-.19 1.056-.19 2.294v6c0 1.238 0 1.92.191 2.295.167.326.438.598.765.764.374.191 1.056.191 2.294.191h8c1.238 0 1.92 0 2.295-.191a1.74 1.74 0 0 0 .765-.765" clip-rule="evenodd"/><path fill="#9ca3af" d="M18.099 20.448a.75.75 0 0 0-.151-1.05h.002a.75.75 0 0 0-1.05.151 1.7 1.7 0 0 1-.604.508c-.375.191-1.057.191-2.295.191h-8c-1.238 0-1.919 0-2.294-.191a1.76 1.76 0 0 1-.765-.764c-.191-.375-.191-1.057-.191-2.295v-6c0-1.238 0-1.92.19-2.294.121-.236.298-.446.51-.606a.75.75 0 1 0-.901-1.199 3.3 3.3 0 0 0-.946 1.125c-.354.695-.354 1.457-.354 2.975v6c0 1.518 0 2.281.354 2.976a3.23 3.23 0 0 0 1.42 1.42c.695.354 1.457.354 2.975.354h8c1.518 0 2.281 0 2.975-.354.44-.224.829-.551 1.125-.947"/></svg>
